X: 16830
T: Harvest Fair
R: polka
M: 2/4
K: Gmajor
|:dB ce|dB c>B|A2 d>c|AB c2|
dB ce|dB cB|A2 d>c|AG G2:|
|:dB dg|f2 f>g|e2 e>f|ed Bc|
dB dg|ec eg|fa d>f|ag g2:|

